!!!!SEGMENT: pl-sa--79-a-ii-19--011_siwinski-andrzej--missa-pro-defunctis-oro-supplex.krn
!!!cenid: 17xx:303
!!!COM: Siwiński, Andrzej
!!!COM-rismid: pe41011487
!!!CDT: <1725->1725
!!!CNT:
!!!OPR: Missa pro defunctis
!!!OTL: Oro supplex
!!!OMV: 011
!!!PDT: 1726
!!!AGN: Sacred; Mass
!!!SMS-siglum: PL-SA
!!!SMS-shelfmark: 79/A II 19
!!!SMS-shelfwork: 001-011 M
!!!NIFC-rismid: 1001070177
!!!URL-scan: http://bc.bdsandomierz.pl/dlibra/publication/1356/edition/1324/content
!!!ONB-nifc: Uwaga: części Mszy: Requiem, Kyrie, Dies Irae,
!!!key:
**kern	**fba	**kern	**kern	**kern	**text	**kern	**text	**kern	**text	**kern	**kern	**kern
*part9	*	*part8	*part7	*part6	*part6	*part5	*part5	*part4	*part4	*part3	*part2	*part1
*	*	*group3	*group3	*group2	*	*group2	*	*group2	*	*group2	*group1	*group1
*staff9	*	*staff8	*staff7	*staff6	*staff6	*staff5	*staff5	*staff4	*staff4	*staff3	*staff2	*staff1
*Iempty	*	*Ivioln	*Ivioln	*Iempty	*	*Iempty	*	*Ialto	*	*Ivox	*Ioboe	*Ioboe
*I"P9	*	*I"Violino 2do	*I"Violino 1mo	*I"P6	*	*I"P5	*	*I"Alto.	*	*I"Canto.	*I"Hobois 2do.	*I"Hautbo. 1mo.
*I'bc	*	*I'vl 2	*I'vl 1	*I'B	*	*I'T	*	*I'A	*	*I'S	*I'ob. 2	*I'ob. 1
*clefF4	*	*clefG2	*clefG2	*clefF4	*	*clefC4	*	*clefC3	*	*clefC1	*clefG2	*clefG2
*k[b-e-]	*	*k[e-b-]	*k[b-e-]	*k[b-e-]	*	*k[b-e-]	*	*k[b-e-]	*	*k[b-e-]	*k[e-b-]	*k[b-e-]
*c:dor	*	*c:dor	*c:dor	*c:dor	*	*c:dor	*	*c:dor	*	*c:dor	*c:dor	*c:dor
*M12/8	*	*M12/8	*M12/8	*M12/8	*	*M12/8	*	*M12/8	*	*M12/8	*M12/8	*M12/8
=1	=1	=1	=1	=1	=1	=1	=1	=1	=1	=1	=1	=1
!LO:TX:a:t=P:problem:brak nazwy partii (na stronie tytułowej "Baſso pro Organo")	!	!	!	!LO:TX:a:t=P:problem:brak nazwy partii (na stronie tytułowej "Baſso vocali")	!	!LO:TX:a:t=P:problem:brak nazwy partii (na stronie tytułowej "Tenore")	!	!	!	!	!	!
!LO:TX:b:i:t=Oro Suplex	!	!LO:TX:b:i:t=oro Suplex	!LO:TX:b:i:t=Oro Suplex	!	!	!	!	!	!	!LO:TX:a:t=Oro Supplex Tacet\n Alt. Ten. Bas.	!	!LO:TX:b:i:t=Oro Suptex
!	!	!LO:TX:a:t=1	!LO:TX:a:t=1	!LO:TX:a:t=2.	!	!LO:TX:a:t=2	!	!LO:TX:a:t=Solo	!	!	!	!LO:TX:a:t=A.T.B
!	!	!	!	!LO:N:vis=0	!	!O:N:vis=0	!	!	!	!	!LO:N:vis=00	!LO:N:vis=00
4.C/	.	1.r	1.r	0.r	.	0.r	.	(8c\L	O-	1.ryy	00.r	00.r
.	.	.	.	.	.	.	.	8d\)J	.	.	.	.
.	.	.	.	.	.	.	.	8e-\	-ro	.	.	.
4.BBn/	6	.	.	.	.	.	.	(8d\L	Sup-	.	.	.
.	.	.	.	.	.	.	.	8e-\)J	.	.	.	.
.	.	.	.	.	.	.	.	8f\	-plex	.	.	.
4C/	.	.	.	.	.	.	.	(8e-\L	et	.	.	.
.	.	.	.	.	.	.	.	8d\)J	.	.	.	.
8F\	.	.	.	.	.	.	.	8c/	ac-	.	.	.
4G\	.	.	.	.	.	.	.	4d\	-cli-	.	.	.
8GG/	.	.	.	.	.	.	.	8G/	-nis	.	.	.
=2	=2	=2	=2	=2	=2	=2	=2	=2	=2	=2	=2	=2
!	!	!	!LO:TX:b:t=P:problem:fala nad nutami zinterpretowana jako staccato:global	!	!	!	!	!LO:TX:a:t=1.	!	!	!	!
4.C/	.	4e-/	8cc'\L	.	.	.	.	1.r	.	1.ryy	.	.
.	.	.	8dd'\	.	.	.	.	.	.	.	.	.
.	.	8e-/	8ee-'\J	.	.	.	.	.	.	.	.	.
4.BBn/	6	4g/	8dd'\L	.	.	.	.	.	.	.	.	.
.	.	.	8ee-'\	.	.	.	.	.	.	.	.	.
.	.	8g/	8ff'\J	.	.	.	.	.	.	.	.	.
4C/	.	4g/	8ee-'\L	.	.	.	.	.	.	.	.	.
.	.	.	8dd'\	.	.	.	.	.	.	.	.	.
8F\	.	8a-X/	8cc'\J	.	.	.	.	.	.	.	.	.
!	!	!	!LO:LB:g=original	!	!	!	!	!	!	!	!	!
4G\	.	4bn\	4dd\	.	.	.	.	.	.	.	.	.
8GG/	.	8b\	8g/	.	.	.	.	.	.	.	.	.
!	!	!	!	!	!	!	!	!LO:PB:g=original	!	!	!	!
=3	=3	=3	=3	=3	=3	=3	=3	=3	=3	=3	=3	=3
!	!	!	!LO:TX:a:t=2	!	!	!	!	!	!	!	!	!
!	!	!LO:N:vis=0	!LO:N:vis=0	!	!	!	!	!	!	!	!	!
8C/L	.	0.r	0.r	4c\	O-	(8c\L	O-	(8e-\L	O-	1.ryy	.	.
8D/	.	.	.	.	.	8d\)J	.	8f\)J	.	.	.	.
!	!	!	!	!	!	!LO:N:vis=4	!	!	!	!	!	!
8E-/J	.	.	.	8c\	-ro	8e-\	-ro	8g\	-ro	.	.	.
8BBn/L	6	.	.	4Bn\	ſup-	4Bn\	Sup-	4d\	Sup-	.	.	.
8AA/	.	.	.	.	.	.	.	.	.	.	.	.
8GG/J	.	.	.	8G\	-plex	8B\	-plex	8d\	-plex	.	.	.
8A-X\L	.	.	.	4A-X\	et	4c\	et	4e-\	et	.	.	.
8G\	.	.	.	.	.	.	.	.	.	.	.	.
8F\J	.	.	.	8F\	ac-	8c\	ac-	8f\	ac-	.	.	.
4G\	.	.	.	4G\	-cli-	4Bn\	-cli-	4d\	-cli-	.	.	.
8GG/	.	.	.	8G\	-nis	8B\	-nis	8d\	-nis	.	.	.
=4	=4	=4	=4	=4	=4	=4	=4	=4	=4	=4	=4	=4
8E-\L	.	.	.	(8E-\L	Cor	4e-\	Cor	4g\	Cor	1.ryy	.	.
8G\	.	.	.	8G\)J	.	.	.	.	.	.	.	.
8A-X\J	.	.	.	8A-X\	Con-	8e-\	con-	8g\	con-	.	.	.
4B-\	.	.	.	4B-\	-tri-	4d\	-tri-	4f\	-tri-	.	.	.
8r	.	.	.	8B-\	-tu(m)	8d\	-tu(m)	8f\	-tum	.	.	.
*	*	*	*	*	*	*	*ij	*	*	*	*	*
8C\L	.	.	.	(8C\L	Cor	4c\	Cor	4e-\	Cor	.	.	.
8E-\	.	.	.	8E-\)J	.	.	.	.	.	.	.	.
8F\J	.	.	.	8F\	Con-	8c\	con-	8e-\	con-	.	.	.
4G\	.	.	.	4G\	-tri-	4Bn\	-tri-	4d\	-tri-	.	.	.
8r	.	.	.	8G\	-tu(m)	8B\	-tu(m)	8d\	-tu(m)	.	.	.
*	*	*	*	*	*	*	*Xij	*	*	*	*	*
=5	=5	=5-	=5	=5	=5	=5	=5	=5	=5	=5	=5	=5
!	!	!LO:N:vis=2	!LO:N:vis=2	!	!	!	!	!	!	!	!LO:N:vis=00	!LO:N:vis=00
4A-X\	.	2.r	2.r	4A-X\	qua-	4c\	qua-	4e-\	qua-	1.ryy	00.r	00.r
8F\	.	.	.	8F\	-si	8c\	-si	8f\	-si	.	.	.
4G\	4	.	.	4G\	ci-	4Bn\	ci-	4d\	ci-	.	.	.
.	3	.	.	.	.	.	.	.	.	.	.	.
8C/	.	.	.	8C/	-nis	8c\	-nis	8c/	-nis	.	.	.
!	!	!	!	!LO:N:vis=2	!	!LO:N:vis=2	!	!LO:N:vis=2	!	!	!	!
4.C/	.	4e-/	8cc'\L	2.r	.	2.r	.	2.r	.	.	.	.
.	.	.	8dd'\	.	.	.	.	.	.	.	.	.
.	.	8e-/	8ee-'\J	.	.	.	.	.	.	.	.	.
4.BBn/	6	4g/	8dd'\L	.	.	.	.	.	.	.	.	.
.	.	.	8ee-'\	.	.	.	.	.	.	.	.	.
.	.	8g/	8ff'\J	.	.	.	.	.	.	.	.	.
!LO:LB:g=original	!	!	!	!	!	!	!	!	!	!	!	!
=6	=6	=6	=6	=6	=6	=6	=6	=6	=6	=6	=6	=6
!LO:TX:b:t=P:problem:fala pod nutami zinterpretowana jako staccato:global	!	!	!	!LO:N:vis=0	!	!LO:N:vis=0	!	!LO:N:vis=0	!	!	!	!
4C/	.	4g/	8ee-'\L	0.r	.	0.r	.	0.r	.	1.ryy	.	.
.	.	.	8dd'\	.	.	.	.	.	.	.	.	.
8F\	.	8a-X/	8cc'\J	.	.	.	.	.	.	.	.	.
4G\	.	4bn/	4dd\	.	.	.	.	.	.	.	.	.
8GG/	.	8b/	8g/	.	.	.	.	.	.	.	.	.
!	!	!LO:TX:b:t=P:problem:fala nad nutami zinterpretowana jako staccato:global	!	!	!	!	!	!	!	!	!	!
8C'/L	.	8ee-'\L	8gg'\L	.	.	.	.	.	.	.	.	.
8C'/	.	8ee-'\	8gg'\	.	.	.	.	.	.	.	.	.
8C'/J	.	8ee-'\J	8gg'\J	.	.	.	.	.	.	.	.	.
8F'\L	.	8cc'\L	8aa-X'\L	.	.	.	.	.	.	.	.	.
8F'\	.	8cc'\	8aa-'\	.	.	.	.	.	.	.	.	.
8F'\J	6	8cc'\J	8aa-'\J	.	.	.	.	.	.	.	.	.
!	!	!LO:LB:g=original	!	!	!	!	!	!	!	!	!	!
=7	=7	=7	=7	=7	=7	=7	=7	=7	=7	=7	=7	=7
8BB-'/L	.	8dd'\L	8ff'\L	.	.	.	.	.	.	1.ryy	.	.
8BB-'/	.	8dd'\	8ff'\	.	.	.	.	.	.	.	.	.
8BB-'/J	.	8dd'\J	8ff'\J	.	.	.	.	.	.	.	.	.
8E-'\L	.	8b-'\L	8gg'\L	.	.	.	.	.	.	.	.	.
8E-'\	.	8b-'\	8gg'\	.	.	.	.	.	.	.	.	.
8E-'\J	.	8b-'\J	8gg'\J	.	.	.	.	.	.	.	.	.
4.C/	.	4g/	8ee-'\L	.	.	.	.	.	.	.	.	.
.	.	.	8ff'\	.	.	.	.	.	.	.	.	.
.	.	8g/	8gg'\J	.	.	.	.	.	.	.	.	.
4G\	4	4bn\	4dd\	.	.	.	.	.	.	.	.	.
.	3	.	.	.	.	.	.	.	.	.	.	.
8C/	.	8cc\	8cc\	.	.	.	.	.	.	.	.	.
=8	=8	=8	=8	=8-	=8	=8	=8	=8-	=8	=8	=8	=8
!	!	!	!LO:TX:a:t=2	!	!	!	!	!	!	!	!	!
!	!	!LO:N:vis=0	!LO:N:vis=0	!	!	!	!	!	!	!	!	!
8E-\L	.	0.r	0.r	(8E-\L	Cor	4e-\	Cor	4g\	Cor	1.ryy	.	.
8G\	.	.	.	8G\)J	.	.	.	.	.	.	.	.
8A-X\J	.	.	.	8A-X\	Con-	8e-\	con-	8g\	con-	.	.	.
4B-\	.	.	.	4B-\	-tri-	4d\	-tri-	4f\	-tri-	.	.	.
8r	.	.	.	8B-\	-tu(m)	8d\	-tu(m)	8f\	-tu(m)	.	.	.
!	!	!	!	!LO:LB:g=original	!	!LO:LB:g=original	!	!	!	!	!	!
*	*	*	*	*	*	*	*ij	*	*ij	*	*	*
8C\L	.	.	.	(8C\L	Cor	4c\	Cor	4e-\	Cor	.	.	.
8E-\	.	.	.	8E-\)J	.	.	.	.	.	.	.	.
8F\J	.	.	.	8F\	Con-	8c\	con-	8e-\	con-	.	.	.
4G\	.	.	.	4G\	-tri-	4Bn\	-tri-	4d\	-tri-	.	.	.
8r	.	.	.	8G\	-tu(m)	8B\	-tu(m)	8d\	-tu(m)	.	.	.
*	*	*	*	*	*	*	*Xij	*	*Xij	*	*	*
=9	=9	=9	=9	=9	=9	=9	=9	=9	=9	=9	=9	=9
!	!	!	!	!	!	!	!	!	!	!	!LO:N:vis=0	!LO:N:vis=0
4A-X\	.	.	.	4A-X\	qua-	4c\	qua-	4e-\	qua-	1.ryy	0.r	0.r
8F\	.	.	.	8F\	-si	8c\	-si	8f\	-si	.	.	.
!	!	!	!	!	!	!	!	!LO:LB:g=original	!	!	!	!
4G\	4	.	.	4G\	Ci-	4Bn\	ci-	4d\	ci-	.	.	.
.	3	.	.	.	.	.	.	.	.	.	.	.
8C/	.	.	.	8C/	-nis	8c\	-nis	8c\	-nis	.	.	.
*	*	*	*	*	*	*	*ij	*	*	*	*	*
4A-X\	.	.	.	4A-X\	qua-	4c\	qua-	4e-\	qua-	.	.	.
8F\	.	.	.	8F\	-si	8c\	-si	8f\	-si	.	.	.
4G\	.	.	.	4G\	ci-	4Bn\	ci-	4d\	ci-	.	.	.
8C/	.	.	.	8C/	-nis	8c\	-nis	8c\	-nis	.	.	.
*	*	*	*	*	*	*	*Xij	*	*	*	*	*
=10	=10	=10-	=10	=10-	=10	=10	=10	=10	=10	=10	=10	=10
!	!	!	!	!LO:TX:a:t=2	!	!	!	!	!	!	!	!
!	!	!	!	!LO:N:vis=0	!	!LO:N:vis=0	!	!LO:N:vis=0	!	!	!	!
8C'/L	.	8ee-'\L	8gg'\L	0.r	.	0.r	.	0.r	.	1.ryy	.	.
8C'/	.	8ee-'\	8gg'\	.	.	.	.	.	.	.	.	.
8C'/J	.	8ee-'\J	8gg'\J	.	.	.	.	.	.	.	.	.
8F'\L	-	8cc'\L	8aa-X'\L	.	.	.	.	.	.	.	.	.
8F'\	.	8cc'\	8aa-'\	.	.	.	.	.	.	.	.	.
8F'\J	.	8cc'\J	8aa-'\J	.	.	.	.	.	.	.	.	.
8BB-'/L	.	8dd'\L	8ff'\L	.	.	.	.	.	.	.	.	.
8BB-'/	.	8dd'\	8ff'\	.	.	.	.	.	.	.	.	.
8BB-'/J	.	8dd'\J	8ff'\J	.	.	.	.	.	.	.	.	.
8E-'\L	.	8b-'\L	8gg'\L	.	.	.	.	.	.	.	.	.
8E-'\	.	8b-'\	8gg'\	.	.	.	.	.	.	.	.	.
8E-'\J	.	8b-'\J	8gg'\J	.	.	.	.	.	.	.	.	.
!LO:LB:g=original	!	!	!	!	!	!	!	!	!	!	!	!
=11	=11	=11	=11	=11	=11	=11	=11	=11	=11	=11	=11	=11
4C/	.	4g/	8ee-'\L	.	.	.	.	.	.	1.ryy	1.r	1.r
.	.	.	8ff'\	.	.	.	.	.	.	.	.	.
8C/	.	8g/	8gg'\J	.	.	.	.	.	.	.	.	.
4G\	4	4bn\	4dd\	.	.	.	.	.	.	.	.	.
.	3	.	.	.	.	.	.	.	.	.	.	.
8C/	.	8cc\	8cc\	.	.	.	.	.	.	.	.	.
4.F\	.	4g/	4aa-X\	.	.	.	.	.	.	.	.	.
.	.	8a-X/	8cc/	.	.	.	.	.	.	.	.	.
4G\	.	8b\	4dd\	.	.	.	.	.	.	.	.	.
.	4	4cc\	.	.	.	.	.	.	.	.	.	.
!	!	!	!LO:LB:g=original	!LO:TX:a:t=P:problem:pojedyncza kreska taktowa	!	!	!	!	!	!	!	!
8C/	3	.	8cc\	.	.	.	.	.	.	.	.	.
=12||	=12||	=12||	=12||	=12||	=12||	=12||	=12||	=12||	=12||	=12||	=12||	=12||
*M2/2	*	*M2/2	*M2/2	*M2/2	*	*M2/2	*	*M2/2	*	*	*M2/2	*M2/2
*met(c)	*	*met(c|)	*met(c|)	*met(c|)	*	*met(c|)	*	*met(c|)	*	*	*met(c|)	*met(c|)
!LO:TX:a:t=tarde	!	!	!LO:TX:a:t=tarde	!	!	!	!	!	!	!	!	!LO:TX:b:i:t=Gere curam
!LO:TX:b:i:t=Gere curam	!	!LO:TX:b:t=tarde	!LO:TX:a:t=gere\n Cura(m)	!LO:TX:a:t=tarde	!	!LO:TX:a:t=tarde	!	!LO:TX:a:t=tarde.	!	!	!	!LO:TX:a:t=Tarde
8GG/L	.	4b-X\	4dd\	4G\	ge-	4B-\	Ge-	4d\	Ge-	1ryy	0r	0r
8AA/	.	.	.	.	.	.	.	.	.	.	.	.
8BB-/	.	4r	4r	4G\	-re	4B-\	-re	4d\	-re	.	.	.
8GG/J	.	.	.	.	.	.	.	.	.	.	.	.
8D\L	.	4a/	4dd\	4F#X\	Cu-	4A\	Cu-	4d\	cu-	.	.	.
8En\	.	.	.	.	.	.	.	.	.	.	.	.
8F#X\	6	4r	4r	4D\	-ram	4A\	-ram	4f#X\	-ram	.	.	.
8D\J	.	.	.	.	.	.	.	.	.	.	.	.
=13	=13	=13	=13	=13	=13	=13	=13	=13	=13	=13	=13	=13
8E-/L	6	8b-/L	8gg\L	8E-\	me-	8B-\	me-	8g\	me-	1ryy	.	.
.	5	.	.	.	.	.	.	.	.	.	.	.
8C/	.	8b-/J	8gg\J	8C/	-i	8B-\	-i	8g\	-i	.	.	.
8D/	.	4a/	4ff#X\	4D/	fi-	4A\	fi-	4f#X\	fi-	.	.	.
8DD/J	4	.	.	.	.	.	.	.	.	.	.	.
.	3	.	.	.	.	.	.	.	.	.	.	.
4GG/	.	4b-/	4gg\	4GG/	-nis	4B-\	-nis	4g\	-nis	.	.	.
4r	.	4r	4r	4r	.	4r	.	4r	.	.	.	.
=14	=14	=14	=14	=14	=14	=14	=14	=14	=14	=14	=14	=14
8E-/L	.	4b-/	8gg\L	8E-\	me-	8B-\	me-	8g\	me-	1ryy	1r	1r
8C/	.	.	8gg\J	8C/	-i	8B-\	-i	8g\	-i	.	.	.
8D/	.	4a/	4ff#X\	4D/	fi-	4A\	fi-	4f#X\	fi-	.	.	.
8DD/J	4	.	.	.	.	.	.	.	.	.	.	.
.	3	.	.	.	.	.	.	.	.	.	.	.
4GG/	.	4b-/	4gg\	4GG/	-nis	4B-\	-nis	4g\	-nis	.	.	.
4r	.	4ryy	4r	4r	.	4r	.	4r	.	.	.	.
==	==	==	==	==	==	==	==	==	==	==	==	==
*-	*-	*-	*-	*-	*-	*-	*-	*-	*-	*-	*-	*-
!!!system-decoration: [g1][g2][g3]s9
!!!AIN: 1 alto 3 empty 2 oboe 2 violn 1 vox
!!!ENC: Marta Lawrence
!!!END: 2020-12-02
!!!ENC: Marcin Jachim
!!!END: 2020-04-29
